!!!!SEGMENT: pl-wumfc--n8918--001-003_szymanowski-karol--dwanascie-piesni-op-17-iii-zaloty-a-gdy-w-dom-moj-niosac-wdziek.krn
!!!cenid: 19xx:75
!!!COM: Szymanowski, Karol
!!!COM-rismID: pe30106403
!!!CDT: 1882-1937
!!!CNT: Polish
!!!GTL: Dwanaście pieśni Op. 17
!!!OTL: III. Zaloty/A gdy w dom mój niosąc wdzięk
!!!OMV: 003
!!!PDT:
!!!AGN: Secular; Song
!!!YEC: Copyright 2022 Narodowy Instytut Fryderyka Chopina (https://polishscores.org)
!!!YEM: License CC-BY-4.0 (https://creativecommons.org/licenses/by/4.0)
!!!SMS-siglum: PL-Wumfc
!!!SMS-shelfmark: N8918
!!!SMS-variant:
!!!SMS-altvar:
!!!SMS-shelfwork: 001-003 G
!!!NIFC-rismSourceID: 1001170644
!!!NIFC-rismChildID: 1001170648
!!!NIFC-islandoraID: pl-wumfc:7726
!!!URL-pdf-islandora: https://repozytorium.nifc.pl/islandora/object/pl-wumfc%3A7726/datastream/PDF/view
!!!URL-scan: https://polish.musicsources.pl/pl/lokalizacje/galeria/druki-muzyczne/12685/4 @EN{Scan on Polish Music Sources Website} @PL{Skany w portalu Dziedzictwo Muzyki Polskiej w otwartym dostępie}
!!!IIIF:
!!!ONB-nifc: UWAGA: str. 4-5.
!!!OMD: Allegro appassionato.
!!!AIN: 1 piano 1 vox
!!!key: C
**kern	**kern	**fing	**dynam	**kern	**text	**text	**dynam
*part2	*part2	*part2	*part2	*part1	*part1	*part1	*part1
*staff3	*staff2	*staff2	*	*staff1	*staff1	*staff1	*
*ICklav	*ICklav	*	*	*ICvox	*	*	*
*Ipiano	*Ipiano	*	*	*Ivox	*	*	*
*I"[Piano]	*I"[Piano]	*	*	*I"[Canto]	*	*	*
*clefF4	*clefG2	*	*	*clefG2	*	*	*
*k[]	*k[]	*	*	*k[]	*	*	*
*C:	*C:	*	*	*C:	*	*	*
*M4/4	*M4/4	*	*	*M4/4	*	*	*
*met(c)	*met(c)	*	*	*met(c)	*	*	*
=1	=1	=1	=1	=1	=1	=1	=1
*Xtuplet	*	*	*	*	*	*	*
!LO:TX:t=P:problem=mixed beam	!	!	!	!	!	!	!
(12DDD/L 12DD	((>12dd^^/L	.	p <	2r	.	.	.
(12A\	(12e-X/ 12g 12a	.	.	.	.	.	.
12G\J)	12b-X/J)	.	.	.	.	.	.
*	*Xtuplet	*	*	*	*	*	*
12D\L	12ff^^/L	.	.	.	.	.	.
(12c\	(12g-X/ 12b- 12cc	.	.	.	.	.	.
12B-X\J))	12dd/J))	.	.	.	.	.	.
!LO:TX:t=P:problem=mixed beam	!	!	!	!	!	!	!
(12DD/L	12dd#X^^/L	.	.	4r	.	.	.
(12A#X\	(12en/ 12g#X 12a#X	.	.	.	.	.	.
12G#X\J)	12bn/J)	.	.	.	.	.	.
12D\L	12ff#X^^/L	.	.	8cc#X\	Und	A	.
!	!LO:TX:b:i:t=molto cresc.	!	!	!	!	!	!
(12c#X\	(12gn/ 12b 12cc#X	.	.	.	.	.	.
!	!	!	!	!	!	!	!LO:HP:a
.	.	.	.	8ddn\	du	gdy	<
12Bn\J))	12ddn/J)	.	.	.	.	.	.
=2	=2	=2	=2	=2	=2	=2	=2
(12DD/L 12D	(12e^^\L 12ee	.	.	4.een\	ka-	w dom	.
12Bn/	(12fnZ\ 12a 12b	.	.	.	.	.	.
12An/J)	12ccn\J))	.	.	.	.	.	.
4CC#X^^/ 4C#X	(12e#X^^\L 12ee#X	.	.	.	.	.	.
.	(12g\ 12b 12cc#X	.	.	.	.	.	.
.	.	.	.	8ddnZ\	-mest	mój	.
.	12dd\J))	.	.	.	.	.	.
4AAA^^/ 4AA	(12f#X^^\L 12ff#X	.	.	4ccn\	in	nio-	.
.	(12g#X\ 12ccn 12ddn	.	.	.	.	.	.
.	12dd#X\J))	.	.	.	.	.	.
4EEE^^/ 4EE	(12gn^^\L 12ggn	.	.	4b-X\	mein	-sąc	[
.	(12a#X\ 12cc#X 12dd#	.	.	.	.	.	.
.	12een\J)))	.	[	.	.	.	.
!!LO:LB:g=original
=3	=3	=3	=3	=3	=3	=3	=3
12BBBB#X^/L 12BBB#X	(4.g#X^^\ 4.b#X 4.dd#X 4.gg#X	.	ff >	2dd#X\	Haus	wdzięk	.
(<12C##X/	.	.	.	.	.	.	.
12D#X/J	.	.	]	.	.	.	.
12d#X\L)	.	.	mf	.	.	.	.
(12E#X\	.	.	.	.	.	.	.
.	4an\ 4cc#X 4ff#X	.	.	.	.	.	.
12F#X\J	.	.	.	.	.	.	.
!LO:TX:t=P:problem=mixed beam	!	!	!	!	!	!	!
12f#X\L)	.	.	.	8r	.	.	.
12FF#X/	.	.	.	.	.	.	.
!	!	!	!	!	!	!	!LO:DY:a:rj
!	!	!	!	!	!	!	!LO:HP:a
.	([4g#X^^\ 4b#X 4ee	.	<	4ee^^\	kamst	Czar-	f >
(12F##X/J	.	.	.	.	.	.	.
12G#X\L	.	.	.	.	.	.	.
12g#X\J)	.	.	.	.	.	.	.
.	(8g#\]) [8bn 8dd#	.	.	8dd#\	mit	-nych	.
12r	.	.	.	.	.	.	]]
=4	=4	=4	=4	=4	=4	=4	=4
*	*^	*	*	*	*	*	*
*	*	*	*	*^	*	*	*	*
!	!	!	!	!	!LO:HP:a	!	!	!	!
12FFFn/L 12FFn	8cc-X/L]) 8ee-X	4a-X\	.	.	<	4dd#X\	dei-	źre-	.
(12En/	.	.	.	[	.	.	.	.	.
.	8b-X/J) 8ddn	.	.	.	.	.	.	.	.
12Fn/J	.	.	.	.	.	.	.	.	.
!	!	!	!	!	!	!	!	!	!LO:HP:a
12fn\L)	(8b-^^\L 8dd 8ffn 8bb-X	2.ryy	.	.	.	4ddn\	-nen	-nic	<
(12Gn\	.	.	.	.	.	.	.	.	.
.	[8cc-X\J [8ee-X [8aa-X	.	.	.	.	.	.	.	.
12A-X\J	.	.	.	.	.	.	.	.	.
12a-X\L)	8cc-\] 8ee-] 8aa-]	.	.	.	.	4.gg-X^^\	schwar-	cis-	.
12AA-X\	.	.	.	.	.	.	.	.	.
.	([4b-^^\ 4dd 4gg-X	.	.	f >	.	.	.	.	.
(12An\J	.	.	.	.	.	.	.	.	.
12B-X\L	.	.	.	.	.	.	.	.	.
12b-X\J)	.	.	.	.	.	.	.	.	.
.	8b-\])) 8dd-X 8ff	.	.	]	.	8ffn\	-zen	-kasz	[
12r	.	.	.	.	.	.	.	.	.
*	*	*	*	*v	*v	*	*	*	*
*	*v	*v	*	*	*	*	*	*
=5	=5	=5	=5	=5	=5	=5	=5
!	!	!	!	!	!	!	!LO:DY:a
!	!	!	!	!	!	!	!LO:HP:a
4GGGn^^/ 4GGn	(12f^^\L 12ff	.	mf <	2ffn\	Blik-	ra-	f >
.	(12b-X\ 12cc	.	.	.	.	.	.
.	12dd-X\J)	.	.	.	.	.	.
4FFF^^/ 4FF	12a-X^^\L 12aa-X	.	.	.	.	.	.
.	(12b-\ 12cc	.	.	.	.	.	.
.	12dd-\J)	.	.	.	.	.	.
4EEE^^/ 4EE	12g^^\L 12gg	.	.	4een\	-ken;	-zy	]
.	(12b-\ 12ddn	.	.	.	.	.	.
.	12ee-X\J)	.	.	.	.	.	.
4EEE-X^^/ 4EE-X	12b-X^^\L 12bb-X	.	.	4r	.	.	.
.	(12dd-\ 12ff#X	.	.	.	.	.	.
.	12gg\J))	.	[	.	.	.	.
!!LO:LB:g=original
=6	=6	=6	=6	=6	=6	=6	=6
!LO:TX:t=P:problem=mixed beam	!	!	!	!	!	!	!
(12DDDn/L 12DDn	(4.cc#X\ 4.ee#X 4.gg#X 4.ccc#X	.	ff >	8r	.	.	.
12F##X\	.	.	.	.	.	.	.
!	!	!	!	!	!	!	!LO:DY:a
!	!	!	!	!	!	!	!LO:HP:a
.	.	.	.	4cc#X\	sah	palm	p <
12G#X\J	.	.	.	.	.	.	.
12g#X\L)	.	.	] p	.	.	.	.
(12A#X\	.	.	.	.	.	.	.
.	4ddn\ 4ff#X 4bbn	.	.	8dd\	ich	da-	[
12Bn\J	.	.	<	.	.	.	.
!	!	!	!	!	!	!	!LO:HP:a
12bn\L)	.	.	.	4cc#\	fer-	-le-	>
12BBn\	.	.	.	.	.	.	.
.	[4cc#^^\ 4ee# 4aan	.	.	.	.	.	.
(12B#X\J	.	.	.	.	.	.	.
12c#X\L	.	.	.	4g#X/	-ne	-kich	.
12cc#X\J)	.	.	.	.	.	.	.
.	8cc#\] [8een [8gg#	.	.	.	.	.	.
12r	.	.	.	.	.	.	]
=7	=7	=7	=7	=7	=7	=7	=7
*	*^	*	*	*	*	*	*
12BBB-X\L 12BB-X	8ff-X/L] 8aa-X]	4dd-X\	.	.	8r	.	.	.
(12An\	.	.	.	.	.	.	.	.
!	!	!	!	!	!	!	!	!LO:HP:a
.	8ee-X/J) 8ggn	.	.	.	4ee-X\	Pal-	wi-	<
12B-X\J	.	.	.	.	.	.	.	.
12b-X\L)	(8ee-\L 8gg 8bb-X 8eee-X	4ryy	.	.	.	.	.	.
(12cn\	.	.	.	.	.	.	.	.
.	[8ff-X\J [8aa-X [8ddd-X	.	.	[	8ff-X\	-men	-dząc	[
12d-X\J	.	.	.	.	.	.	.	.
!	!	!	!	!	!	!	!	!LO:HP:a
12dd-X\L)	8ff-\] 8aa-] 8ddd-]	2ryy	.	.	4ee-\	nik-	ma-	>
12D-X\	.	.	.	.	.	.	.	.
.	[4ee-^^>\ 4gg 4ccc-X	.	.	.	.	.	.	.
(12dn\J	.	.	.	.	.	.	.	.
12e-X\L	.	.	.	.	4b-X\	-ken	-ry	]
12ee-X\J)	.	.	.	.	.	.	.	.
.	8ee-\]) 8gg-X 8bb-	.	.	.	.	.	.	.
12r	.	.	.	.	.	.	.	.
*	*v	*v	*	*	*	*	*	*
=8	=8	=8	=8	=8	=8	=8	=8
!	!	!	!	!	!	!	!LO:DY:a
!	!	!	!	!	!	!	!LO:HP:a
4CC^^/ 4C	(12b-X^^\L 12bb-X	.	mf <	8.b-X\	und	Z rąk	mf <
.	12ee-X\ 12ff	.	.	.	.	.	.
.	12gg-X\J	.	.	.	.	.	.
.	.	.	.	16cc\	du	twych	.
4BBB-X^^/ 4BB-X	12dd-X^^\L 12ddd-X	.	.	8dd-X\	gabst	bio-	.
.	(12ee-\ 12ff	.	.	.	.	.	.
.	.	.	.	8dd-\	mir	-rę	.
.	12gg-\J)	.	.	.	.	.	.
!	!LO:TX:b:i:t=cresc.	!	!	!	!	!	!
4AAAnZ^^/ 4AAnZ	12cc^^\L 12ccc	.	.	4.cc\	dei-	kwia-	.
.	(12ee-X\ 12ggn	.	.	.	.	.	.
.	12aa-X\J)	.	.	.	.	.	.
4AAA-X^^/ 4AA-X	12ee-^^\L 12eee-X	.	.	.	.	.	.
.	(12gg-X\ 12bbn	.	[	.	.	.	.
.	.	.	.	8ee-X\	-nen	-tów	[
.	12ccc\J))	.	.	.	.	.	.
!!LO:LB:g=original
=9	=9	=9	=9	=9	=9	=9	=9
*^	*	*	*	*	*	*	*
!	!	!	!	!	!	!	!	!LO:DY:a:rj
!	!	!	!	!	!	!	!	!LO:HP:a
8FFF#X/ 8FF#X	4ryy	12r	.	ff	2.ff#X\	Strauß.	pęk.	ff >
!	!	!	!	!LO:HP:t=molto dim.	!	!	!	!
.	.	(12dddn\L 12fff#X	.	>	.	.	.	.
((4An/	.	.	.	.	.	.	.	.
.	.	12ee#X\J 12gg#X	.	.	.	.	.	.
.	4D\ 4F#X	12aa\L 12ddd	.	.	.	.	.	.
.	.	12dd\ 12ee#	.	.	.	.	.	.
8B#X/)	.	.	.	.	.	.	.	.
.	.	12ff#X\J)	.	<	.	.	.	.
(4c#X/	8AA#X\ 8C#X 8F#	12r	.	.	.	.	.	.
.	.	(12aa#X\L 12ccc#X	.	.	.	.	.	.
.	4AAA#X\ 4AA#	.	.	.	.	.	.	.
.	.	12cc#X\J 12ee#X	.	.	.	.	.	.
4e/)	.	12ff#\L 12aa#	.	[	4r	.	.	]
.	.	12a#X\ 12b#X	.	.	.	.	.	.
.	8F#X\ 8A#X	.	.	.	.	.	.	.
.	.	12cc#\J)	.	.	.	.	.	.
=10	=10	=10	=10	=10	=10	=10	=10	=10
8Dn\) 8Fn 8B-X 8fn	4ryy	12r	.	.	4r	.	.	.
.	.	(12bb-X\L 12dddn	.	>	.	.	.	.
(4DD/	.	.	.	.	.	.	.	.
.	.	12dd\J 12een	.	.	.	.	.	.
.	4ryy	12dd\L 12ffn	.	.	4r	.	.	.
.	.	12fn\ 12an	.	.	.	.	.	.
8D/)	.	.	.	.	.	.	.	.
.	.	12b-X\J)	.	.	.	.	.	.
8BBBBn/ 8BBBn	8ryy	12r	.	.	8r	.	.	.
.	.	(12ddn\L 12ff#X 12ggn	.	.	.	.	.	.
(8A\L	4.d/	.	.	.	4dd\	Gabst	Te	.
.	.	12gn\J	.	]	.	.	.	.
8G#X\	.	12dd\L 12ff# 12gg#X	.	.	.	.	.	.
!	!	!LO:TX:b:i:t=rall.	!	!	!	!	!	!
.	.	12g#X\	.	.	.	.	.	.
8Gn\J)	.	.	.	.	8dd\	die	stor-	.
.	.	12a\J) 12aa	.	.	.	.	.	.
*v	*v	*	*	*	*	*	*	*
=11	=11	=11	=11	=11	=11	=11	=11
!	!	!	!	!	!	!	!LO:DY:a
!	!	!	!	!LO:TX:a:i:t=dolce	!	!	!LO:HP:a
8CC/ 8C	12r	.	p	4.ee\	zit-	-czy-	p <
.	(12ee\L 12aa	.	<	.	.	.	.
(4G:^^>\ 4A: 4e:	.	.	.	.	.	.	.
.	12a\J 12dd	.	.	.	.	.	.
.	12ee-X\L 12gg	.	.	.	.	.	.
.	12g\ 12cc	.	.	.	.	.	.
8C:\) 8G: 8A: 8e-X:	.	.	.	4ee-X\	-tern-	-ki-	[
.	12cc#X\J)	.	[	.	.	.	.
8CC#X/ 8C#X	12r	.	.	.	.	.	.
.	(12dd\L 12ff#X	.	.	.	.	.	.
!	!	!	!	!	!	!	!LO:HP:a
(4F#X^^:\ 4A#X: 4dn:	.	.	.	4dd\	-den	-peł-	>
.	12f#X\J	.	>	.	.	.	.
.	12a#X/L 12cc#X	.	.	.	.	.	.
.	12e#X/	.	.	.	.	.	.
8C#X:\) 8F#: 8A#: 8c#X:	.	.	.	8cc#X\	Nar-	-ne	.
.	12en/J) 12a#	.	]	.	.	.	]
!!LO:PB:g=original
=12	=12	=12	=12	=12	=12	=12	=12
!	!	!	!	!	!	!	!LO:HP:a
8CCn/ 8Cn	12r	.	.	4een\	-zis-	ro-	<
.	(12ee\L 12aa	.	<	.	.	.	.
(4Gn^^:\ 4A: 4en:	.	.	.	.	.	.	.
.	12an\J 12dd	.	.	.	.	.	.
.	12ee-X\L 12gg	.	.	4ee-X\	-sen,	-sy	[
.	12g\ 12ccn	.	.	.	.	.	.
8C:\) 8G: 8A: 8e-X:	.	.	.	.	.	.	.
.	12cc#X\J)	.	[	.	.	.	.
8CC#X/ 8C#X	12r	.	.	4r	.	.	.
.	(12dd\L 12ff#X	.	<	.	.	.	.
(4F#X^^:\ 4A#X: 4d:	.	.	.	.	.	.	.
.	12f#X\J	.	.	.	.	.	.
!	!	!	!	!	!	!	!LO:DY:a:rj
.	12a#X/L 12cc#X	.	f	[4gg-X^^\	die	rwa-	f
.	12e#X/	.	.	.	.	.	.
8C#X:\) 8F#: 8A#: 8c#X:	.	.	.	.	.	.	.
.	12en/J) 12a#	.	<	.	.	.	.
=13	=13	=13	=13	=13	=13	=13	=13
*	*^	*	*	*	*	*	*
*	*	*tuplet	*	*	*	*	*	*
(<12DDn/L 12Dn	(>4b-X\ 4bb-X	6gg/	.	.	4gg-\]	.	.	.
12GnZ/	.	.	.	[	.	.	.	.
12A-X/J	.	12ffn/	.	ff	.	.	.	.
8EE-X/) 8G-X	8.an\L) 8.ccn 8.ggn 8.aa	4ryy	.	>	4ee-X\	wir	-łaś	.
8r	.	.	.	.	.	.	.	.
.	16bb-X\Jk 16bbb-X	.	.	] pp	.	.	.	.
*	*	*Xtuplet	*	*	*	*	*	*
!LO:TX:a:t=P:problem=mixed beam	!	!	!	!	!	!	!	!
12EEn/NL 12Gn	8bb-\ 8bbb-	6ryy	.	<	4.ccnZ\	in	ze	.
12c/	.	.	.	.	.	.	.	.
.	8r	.	.	.	.	.	.	.
NN(>12b-X>\NJ	.	12b-X\yy	2	.	.	.	.	.
!	!LO:TX:b:i:t=rit.	!	!	!	!	!	!	!
4ryy	12cc\L	4ryy	1	.	.	.	.	.
.	12bb-\	.	4	.	.	.	.	.
.	.	.	.	.	8cc#X\	der	mną	.
.	12ccc\JNN)	.	5	[	.	.	.	.
*	*v	*v	*	*	*	*	*	*
!!LO:LB:g=original
=14	=14	=14	=14	=14	=14	=14	=14
!	!	!	!	!	!	!	!LO:HP:a
8FFFn/ 8FFn	12r	.	p	4dd\	Wild-	W kniej	<
.	(12aa\L 12ddd	.	<	.	.	.	.
(4c^^:\ 4d: 4a:	.	.	.	.	.	.	.
.	12dd\J 12gg	.	.	.	.	.	.
.	12aa-X\L 12ccc	.	.	4dd#X\	-nis	pust-	[
.	12cc\ 12ff	.	.	.	.	.	.
8F:\) 8c: 8d: 8a-X:	.	.	.	.	.	.	.
.	12ff#X\J)	.	[	.	.	.	.
!	!	!	!	!	!	!	!LO:HP:a
8FF#X/ 8F#X	12r	.	.	4.ff#X\	pflück-	-ko-	>
.	(12gg\L 12bb	.	>	.	.	.	.
(4B^^:\ 4d#X: 4gn:	.	.	.	.	.	.	.
.	12bn\J	.	.	.	.	.	.
.	12dd#X\L 12ff#X	.	.	.	.	.	.
.	12a#X\	.	.	.	.	.	.
8F#X:\) 8B: 8d#: 8f#X:	.	.	.	8b\	-ten.	-wiu.	]
.	12an\J) 12dd#	.	]	.	.	.	.
=15	=15	=15	=15	=15	=15	=15	=15
8FFn/ 8Fn	12r	.	.	4r	.	.	.
.	(12aa\L 12ddd	.	<	.	.	.	.
(4c^^:\ 4d: 4a:	.	.	.	.	.	.	.
.	12ddn\J 12gg	.	.	.	.	.	.
.	12aa-X\L 12ccc	.	.	4r	.	.	.
.	12cc\ 12ff	.	.	.	.	.	.
8F:\) 8c: 8d: 8a-X:	.	.	.	.	.	.	.
.	12ff#X\J)	.	.	.	.	.	.
8FF#X/ 8F#X	12r	.	.	8r	.	.	.
.	(12gg\L 12bb	.	.	.	.	.	.
!LO:TX:a:i:t=cresc.	!	!	!	!	!	!	!LO:HP:a
(4B^^\ 4d#X 4g	.	.	.	4dd#X\	Dei-	Spocz-	<
.	12bn\J	.	.	.	.	.	.
.	12dd#X\L 12ff#X	.	.	.	.	.	.
.	12a#X\	.	.	.	.	.	.
8F#X\) 8B 8d# 8f#X	.	.	.	8dd#\	-ne	-nij!	.
.	12an\J) 12dd#	.	[	.	.	.	.
=16	=16	=16	=16	=16	=16	=16	=16
*	*^	*	*	*	*	*	*
(12GGn\L 12Gn	(>8.cc/L	4e-X\ 4ee-X	.	ff	4ee-X\	schwar-	złóż	[
12cn\	.	.	.	.	.	.	.	.
12d-X\J	.	.	.	>	.	.	.	.
.	16b-X/Jk	.	.	.	.	.	.	.
8AA-X/) 8A-X	8.dn\L) 8.fn 8.cc 8.ddn	4ryy	.	.	4ddn\	-zen	na	.
8r	.	.	.	.	.	.	.	.
.	16ee-X\Jk 16eee-X	.	.	.	.	.	.	.
!LO:TX:t=P:problem=mixed beam	!	!	!	!	!	!	!	!LO:HP:a
(12AAAn/L 12AAn	8ee-\ 8cccn 8eee-	6ryy	.	] p	4.ccn\	Lok-	mem	>
12F/)	.	.	.	.	.	.	.	.
.	8r	.	.	<	.	.	.	.
NN(>12e-X>\J	.	12e-Xyy	2	.	.	.	.	.
!	!LO:TX:b:i:t=rit.	!	!	!	!	!	!	!
4ryy	12f\L	4ryy	1	.	.	.	.	.
.	12ee-\	.	4	.	.	.	.	.
.	.	.	.	.	8fn/	-ken	wez-	]
.	12ff\JNN)	.	5	[	.	.	.	.
*	*v	*v	*	*	*	*	*	*
!!LO:LB:g=original
=17	=17	=17	=17	=17	=17	=17	=17
!	!	!	!	!	!	!	!LO:DY:a:rj
!	!	!	!	!	!	!	!LO:HP:a
8BBB-X/ 8BB-X	12r	.	f	4.gg\	schmück-	-gło-	f <
.	(12ddn\L 12ggn	.	<	.	.	.	.
(4Fn^^:\ 4Gn: 4dn:	.	.	.	.	.	.	.
.	12gn\J 12ccn	.	.	.	.	.	.
.	12dd-X\L 12ffn	.	.	.	.	.	.
.	12f\ 12b-X	.	.	.	.	.	.
8BB-X:\) 8F: 8G: 8d-X:	.	.	.	4ff\	-ten	-wiu	.
.	12bn\J)	.	[	.	.	.	.
8BBBn/ 8BBn	12r	.	.	.	.	.	.
.	(12cc\L 12ee	.	>	.	.	.	.
(4E^^\ 4G#X 4cn	.	.	.	4eenZ\	mei-	swo-	[
.	12e\J	.	.	.	.	.	.
.	12g#X/L 12b	.	.	.	.	.	.
.	12d#X/	.	.	.	.	.	.
8BBn:\) 8E: 8G#: 8Bn:	.	.	.	8bn\	-nes	-je	.
.	12dn/J) 12g#	.	]	.	.	.	.
=18	=18	=18	=18	=18	=18	=18	=18
!	!	!	!	!	!	!	!LO:HP:a
8BBB-X/ 8BB-X	12r	.	.	4.gg\	Di-	czar-	<
!	!	!	!LO:HP:t=cresc. molto:ext=s	!	!	!	!
.	(12dd\L 12gg	.	<	.	.	.	.
(4Fn^^:\ 4Gn: 4dn:	.	.	.	.	.	.	.
.	12gn\J 12cc	.	.	.	.	.	.
.	12dd-X\L 12ff	.	.	.	.	.	.
.	12f\ 12b-X	.	.	.	.	.	.
8BB-X:\) 8F: 8G: 8d-X:	.	.	.	4ff\	-vans	-ne	.
.	12bn\J)	.	.	.	.	.	.
8BBBn/ 8BBn	12r	.	.	.	.	.	.
.	(12cc\L 12ee	.	.	.	.	.	.
(4E^^:\ 4G#X: 4c:	.	.	.	4ee\	ro-	buj-	.
.	12e\J	.	.	.	.	.	.
.	12g#X/L 12b	.	.	.	.	.	.
.	12d#X/	.	.	.	.	.	.
8BBn:\) 8E: 8G#: 8Bn:	.	.	.	8b\	-te	-ne	[
.	12dn/J) 12g#	.	.	.	.	.	.
=19	=19	=19	=19	=19	=19	=19	=19
*M2/4	*M2/4	*	*	*M2/4	*	*	*
*	*^	*	*	*	*	*	*
12BBB#X/L 12BB#X	(8dd/L	4g#X\ 4gg#X	.	ff	(8dd\L	Kis-	wło-	.
12E#X/	.	.	.	.	.	.	.	.
.	8dd#X/J	.	.	.	8dd#X\J)	.	.	.
12F#X/J	.	.	.	.	.	.	.	.
!	!LO:TX:b:i:t=rall.	!	!	!	!	!	!	!
12BB-X/L 12Gn	8ee/L	4gn\ 4ggn	.	.	4ee\	-sen.	-sy	.
12CC#X/	.	.	.	.	.	.	.	.
.	8dd#/J)	.	.	.	.	.	.	.
12G#X/J	.	.	.	.	.	.	.	.
*	*v	*v	*	*	*	*	*	*
!!LO:LB:g=original
=20	=20	=20	=20	=20	=20	=20	=20
*M4/4	*M4/4	*	*	*M4/4	*	*	*
*met(c)	*met(c)	*	*	*met(c)	*	*	*
*	*	*	*^	*	*	*	*
!	!LO:TX:a:i:t=a tempo	!	!LO:DY:b	!	!	!	!	!
12AAn^^/L 12An	((>12ddn^^/L	.	ff >	.	1r	.	.	.
!	!	!	!LO:DY:b	!	!	!	!	!
12DD/	(12e-X/ 12gn 12an	.	] p	.	.	.	.	.
12G/J	12b-X/J)	.	<	.	.	.	.	.
12D\L	12ff/L	.	.	.	.	.	.	.
(12c\	(12g-X/ 12b- 12cc	.	.	.	.	.	.	.
12B-X\J)	12dd/J))	.	.	.	.	.	.	.
12DD/L	(>12dd#X/L	.	.	.	.	.	.	.
(12A#X/	(12en/ 12g#X 12a#X	.	.	.	.	.	.	.
12G#X/J)	12bn/J)	.	.	.	.	.	.	.
12D\L	12ff#X/L	.	.	.	.	.	.	.
!	!	!	!	!LO:HP:a:t=molto cresc.	!	!	!	!
(12c#X\	(12gn/ 12b 12cc#X	.	.	<	.	.	.	.
12Bn\J)	12ddn/J))	.	.	.	.	.	.	.
=21	=21	=21	=21	=21	=21	=21	=21	=21
12DD/L 12D	12en^^\L 12een	.	.	.	1r	.	.	.
(12Bn/	(12fn\ 12an 12b	.	.	.	.	.	.	.
12A/J)	12ccn\J)	.	.	.	.	.	.	.
4CC#X^^>/ 4C#X	12e#X^^\L 12ee#X	.	.	.	.	.	.	.
.	(12g\ 12b 12cc#X	.	.	.	.	.	.	.
.	12dd\J)	.	.	.	.	.	.	.
4AAA^^>/ 4AA	12f#X^^\L 12ff#X	.	.	.	.	.	.	.
.	(12g#X\ 12ccn 12ddn	.	.	.	.	.	.	.
.	12dd#X\J)	.	.	.	.	.	.	.
4EEE^^>/ 4EE	12gn^^\L 12ggn	.	.	.	.	.	.	.
.	(12a#X\ 12cc#X 12dd#	.	.	.	.	.	.	.
.	12een\J))	.	[	.	.	.	.	.
*	*	*	*v	*v	*	*	*	*
=22	=22	=22	=22	=22	=22	=22	=22
!	!	!	!	!	!	!	!LO:HP:a
12BBBB#X/L 12BBB#X	(4.g#X^^\ 4.b#X 4.dd#X 4.gg#X	.	ff	4.gg#X\	Keh-	Wejdź!	>
(<12D/	.	.	.	.	.	.	.
12D#X/J	.	.	>	.	.	.	.
12d#X\L)	.	.	.	.	.	.	.
(>12E#X\	.	.	.	.	.	.	.
.	4an\ 4cc#X 4ff#X	.	.	8ff#X\	-re	w mym	.
12F#X\J	.	.	.	.	.	.	.
12f#X\L)	.	.	.	4.een\	wie-	do-	.
12FF#X\	.	.	.	.	.	.	.
.	((4g#^^\ 4b# 4een	.	.	.	.	.	.
(12F##X\J	.	.	.	.	.	.	.
12G#X\L	.	.	.	.	.	.	.
12g#X\J)	.	.	.	.	.	.	.
!	!LO:TX:b:i:t=rit.	!	!	!	!	!	!
.	(>(>8gn\)) 8bn 8dd#	.	.	8dd#X\	-der	-mu	]
12r	.	.	.	.	.	.	.
!!LO:PB:g=original
=23	=23	=23	=23	=23	=23	=23	=23
*	*^	*	*	*	*	*	*
12FFFn/L 12FFn	8cc-X/L)) 8ee-X	4a-X\	.	.	8dd#X\	in	roz-	.
(<12En/	.	.	.	.	.	.	.	.
.	8b-X/J) 8ddn	.	.	]	8ddn\	mein	-tocz	.
12Fn/J	.	.	.	.	.	.	.	.
12fn\L)	(8b-^^\L 8dd 8ffn 8bb-X	4ryy	.	<	4b-X\	Haus,	wdzięk,	.
(12Gn\	.	.	.	.	.	.	.	.
.	[8cc-X\J [8ee-X [8aa-X	.	.	.	.	.	.	.
12A-X\J	.	.	.	.	.	.	.	.
12a-X\L)	8cc-\] 8ee-] 8aa-]	2ryy	.	[	8r	.	.	.
12AA-X\	.	.	.	.	.	.	.	.
.	([4b-\ 4dd 4gg-X	.	.	sf >	4gg-X^^\	laß	niech	.
(12An\J	.	.	.	.	.	.	.	.
12B-X\L	.	.	.	.	.	.	.	.
12b-X\J)	.	.	.	.	.	.	.	.
!	!LO:TX:b:i:t=rit.	!	!	!	!	!	!	!
.	8b-\])) 8dd-X 8ff	.	.	]	8ffn\	die	tam	.
12r	.	.	.	.	.	.	.	.
*	*v	*v	*	*	*	*	*	*
=24	=24	=24	=24	=24	=24	=24	=24
!	!	!	!	!	!	!	!LO:HP:a
4GGGn^^/ 4GGn	(12fn\L 12ffn	.	mf <	4.ffn\	wil-	kwit-	<
.	(12b-X\ 12cc	.	.	.	.	.	.
.	12dd-X\J)	.	.	.	.	.	.
4FFFn^^/ 4FFn	12a-X\L 12aa-X	.	.	.	.	.	.
.	(12b-\ 12cc	.	.	.	.	.	.
.	.	.	.	8dd-X\	-den	-nie	.
.	12dd-\J)	.	.	.	.	.	.
4FFF-X^^/ 4FF-X	12gn\L 12ggn	.	.	4.dd-\	Blu-	leś-	.
.	(12b-\ 12ddn	.	.	.	.	.	.
.	12ee-X\J)	.	.	.	.	.	.
4EEE-X^^/ 4EE-X	12b-X\L 12bb-X	.	.	.	.	.	.
.	(12dd-X\ 12ff#X	.	.	.	.	.	.
.	.	.	.	8b-X\	-men	-ne	[
.	12ggn\J))	.	[	.	.	.	.
=25	=25	=25	=25	=25	=25	=25	=25
12DDDn/L 12DDn	(4.cc#X\ 4.ee#X 4.gg#X 4.ccc#X	.	ff >	4a#X/	blü-	kwie-	.
(12FF##X/	.	.	.	.	.	.	.
12GG#X/J	.	.	.	.	.	.	.
12G#X/L)	.	.	.	4bn\	-hen,	-cie,	.
(12AA#X/	.	.	.	.	.	.	.
.	4bn\ 4ddn 4ff#X 4bbn	.	] mf	.	.	.	.
12BBn/J	.	.	.	.	.	.	.
12Bn/L)	.	.	.	4r	.	.	.
12BBBn/ 12BB	.	.	.	.	.	.	.
.	(4an^^\ [4cc# 4ee# 4aan	.	.	.	.	.	.
(12BB#X/J	.	.	.	.	.	.	.
!	!	!	!	!LO:TX:t=P:problem:klamra łukowa i 3	!	!	!
12C#X\L	.	.	.	6cc#X\	uns-	u-	.
12c#X\J)	.	.	.	.	.	.	.
!	!LO:TX:b:i:t=rit.	!	!	!	!	!	!
.	[8g#X\) 8cc#_ [8een [8gg#X	.	.	.	.	.	.
12r	.	.	.	12g#X/	-re	-sta	.
!!LO:LB:g=original
=26	=26	=26	=26	=26	=26	=26	=26
!	!LO:TX:b:i:t=(affetuoso)	!	!	!	!	!	!
12BBB-X/L	8a-X\L] 8dd-X_ 8ff-X] 8aa-X]	.	.	4.ee-X\	jun-	na-	.
(12AAn/	.	.	.	.	.	.	.
.	8gn\J) 8dd-] 8ee-X 8ggn	.	.	.	.	.	.
12BB-X/J	.	.	.	.	.	.	.
12B-X\L)	(8ee-^^\L 8gg 8bb-X 8eee-X	.	.	.	.	.	.
(12Cn\	.	.	.	.	.	.	.
.	[8dd-X\J [8ff-X [8aa-X [8ddd-X	.	.	8ff-X\	-ge	-sze	.
12D-X\J	.	.	.	.	.	.	.
12d-X\L)	8dd-\] 8ff-] 8aa-] 8ddd-]	.	.	4ee-\	Lip-	pło-	.
12DD-X\ 12D-	.	.	.	.	.	.	.
.	(4cc-X^^\ [4ee-X 4ggn 4ccc-X	.	sf >	.	.	.	.
(12Dn\J	.	.	.	.	.	.	.
12E-X\L	.	.	.	4b-X\	-pen	-ną	.
12e-X\J)	.	.	.	.	.	.	.
!	!LO:TX:b:i:t=rit.	!	!	!	!	!	!
.	8b-X\)) 8ee-] 8gg-X 8bb-X	.	]	.	.	.	.
12r	.	.	.	.	.	.	.
=27	=27	=27	=27	=27	=27	=27	=27
*	*	*	*^	*	*	*	*
4CCnZ^^/ 4CnZ	(>12b-X^^\L 12bb-X	.	mf	.	4b-X\	glü-	prze-	.
.	(12ee-X\ 12ffn	.	<	.	.	.	.	.
.	12gg-X\J)	.	.	.	.	.	.	.
4BBB-X^^/ 4BB-X	12dd-X^^\L 12ddd-X	.	.	.	4dd-X\	-hen.	-cie!	.
!	!	!	!	!LO:HP:a:t=cresc. molto	!	!	!	!
.	(12ee-\ 12ff	.	.	<	.	.	.	.
.	12gg-\J)	.	.	.	.	.	.	.
8BBB--^^/L 8BB--	12ccn^^\L 12cccn	.	.	.	4r	.	.	.
.	(12ee-\ 12aa-X	.	.	.	.	.	.	.
8AAA-X^^/J 8AA-X	.	.	.	.	.	.	.	.
.	12bb--\J)	.	.	.	.	.	.	.
8GGG-X^^/L 8GG-X	12ee-^^\L 12eee-X	.	.	.	4r	.	.	.
.	(12gg-X\ 12bbn	.	.	.	.	.	.	.
8FFF^^/J 8FF	.	.	.	.	.	.	.	.
.	12ccc\J)	.	[	.	.	.	.	.
*	*	*	*v	*v	*	*	*	*
=28	=28	=28	=28	=28	=28	=28	=28
!	!	!	!LO:DY:rj	!	!	!	!
4EEEn/ 4EEn	12r	.	fff	4r	.	.	.
*	*8va	*	*	*	*	*	*
!	!LO:TX:b:i:t=(sempre)	!	!	!	!	!	!
.	(12ggg#X\L 12cccc#X	.	.	.	.	.	.
.	12ccc#X\J 12ddd#X	.	.	.	.	.	.
!	!	!	!	!	!	!	!LO:DY:a:rj
!	!	!	!	!LO:TX:a:i:t=(Con molto passione)	!	!	!LO:HP:a
(2G#X^^\ 2Bn 2c#X 2en 2g#X	12eeen\L 12ggg#	.	.	2gg#X^^\	Gieb	Daj	fff >
.	12gg#X\ 12aa#X	.	.	.	.	.	.
.	12bb\J)	.	.	.	.	.	.
.	12r	.	.	.	.	.	.
.	(>12ccc#/L 12eee	.	.	.	.	.	.
.	12een/J 12ff#X	.	.	.	.	.	.
4Gn^^\) 4B 4c# 4e 4gn	12ee/L 12ggn	.	.	4ggn\	mir,	mi,	.
.	12a#X/	.	.	.	.	.	.
.	12b/J))	.	.	.	.	.	.
!!LO:LB:g=original
=29	=29	=29	=29	=29	=29	=29	=29
4FFFn^^/ 4FFn	12r	.	.	4r	.	.	.
.	(12ggg-X\L 12bbb-X	.	>	.	.	.	.
.	12bb-X\J 12ddd-X	.	.	.	.	.	.
(2G-X^^\ 2B-X 2dn 2g-X	12dddn\L 12fffn	.	.	2gg-X^^\	gieb	daj	.
.	12ffn\ 12aan	.	.	.	.	.	.
.	12bb-X\J)	.	.	.	.	.	.
*	*X8va	*	*	*	*	*	*
.	12r	.	.	.	.	.	.
.	(12bb-X\L 12dddn	.	.	.	.	.	.
.	12ddn\J 12een	.	]	.	.	.	.
4Fn^^\) 4B- 4d 4fn	12dd\L 12ff	.	.	(8ffn\L	mir	mi	]
.	12an\	.	.	.	.	.	.
.	.	.	.	8b-X\J)	.	.	.
.	12b-\J)	.	.	.	.	.	.
=30	=30	=30	=30	=30	=30	=30	=30
*M6/4	*M6/4	*	*	*M6/4	*	*	*
*	*^	*	*	*	*	*	*
4AA-X^^\ 4Fn 4B-X	(12dn^^/L 12b-X 12ddn	4ryy	.	<	4ddn^^\	dei-	kwia-	<
.	12en/	.	.	.	.	.	.	.
.	12f/J)	.	.	.	.	.	.	.
4GGn^^\ 4F 4Bn	12e-X^^/L 12bn 12ee-X	4ryy	.	.	4ee-X^^\	-nen	-tów	.
.	12f#X/	.	.	.	.	.	.	.
.	12g/J	.	.	[	.	.	.	.
!LO:TX:t=P:problem=mixed beam	!	!	!	!	!	!	!	!
NN(12En^^\L 12F#X 12A#X 12dn	4f#X^^\ 4a 4ff#X	(>4ddn/	.	???	[1ff#X^^	Strauß!	pęk!	.
(12FFF#X/	.	.	.	.	.	.	.	.
12FF#X/J	.	.	.	.	.	.	.	.
12En\L	N(>12c#X\LNN)	4c#/) 4cc#X	.	.	.	.	.	.
12G##X\	12e#X\	.	.	.	.	.	.	.
12A#X\J	12f#X\J	.	.	.	.	.	.	.
!	!LO:TX:b:i:t=rall.	!	!	!	!	!	!	!
12B#X\L	12g##X\L	2ryy	.	.	.	.	.	.
12c#X\	12a#X\	.	.	.	.	.	.	.
12f#X\J	12g##\J 12b#X	.	.	.	.	.	.	.
!LO:TX:t=P:problem=mixed beam	!LO:TX:t=P:problem=TUP:t=2	!	!	!	!	!	!	!
12en\L	8a#/L 8ccn	.	.	.	.	.	.	.
12FF#/	.	.	.	.	.	.	.	.
.	8en/JN) 8g#X 8cc##X	.	.	.	.	.	.	.
12FFF#/J)	.	.	.	.	.	.	.	[
*	*v	*v	*	*	*	*	*	*
!!LO:LB:g=original
=31	=31	=31	=31	=31	=31	=31	=31
*M4/4	*M4/4	*	*	*M4/4	*	*	*
*met(c)	*met(c)	*	*	*met(c)	*	*	*
!LO:TX:t=P:problem=mixed beam	!LO:TX:a:i:t=a tempo	!	!	!	!	!	!LO:HP:a
12BBBBn^^/L 12BBBn	(12dd#X^^/L	.	f ??? <	4ff#XZ\_	.	.	>
(12A#X\	(12e/ 12g#X 12a#X	.	.	.	.	.	.
12G#X\J)	12b/J)	.	.	.	.	.	.
!LO:TX:t=P:problem=mixed beam	!	!	!	!	!	!	!
12BB\L	12ff#X^^\L	.	.	8ff#\]	.	.	]
(12d#X\	(12gn\ 12b 12cc#X	.	.	.	.	.	.
.	.	.	.	8r	.	.	.
12c#X\J)	12dd#X\J)	.	.	.	.	.	.
!LO:TX:t=P:problem=mixed beam	!	!	!	!	!	!	!
12BB/L	12ee^^\L	.	.	4r	.	.	.
(12B\	(12fn\ 12an 12bn	.	.	.	.	.	.
12An\J)	12ccn\J)	.	.	.	.	.	.
12BB\L	12ggn^^\L	.	.	4r	.	.	.
(12e\	(12a-X\ 12cc 12ddn	.	.	.	.	.	.
12dn\J)	12ee\J))	.	[	.	.	.	.
=32	=32	=32	=32	=32	=32	=32	=32
*	*	*	*^	*	*	*	*
8BBBB/ 8BBB	(12e#X^^\L 12ee#X	.	<	.	1r	.	.	.
.	(12g#X\ 12bn 12cc#X	.	.	.	.	.	.	.
4E#X^^\ 4Bn 4dn	.	.	.	.	.	.	.	.
.	12ddn\J)	.	.	.	.	.	.	.
.	12f#X^^\L 12ff#X	.	.	.	.	.	.	.
.	(12anZ\ 12ccn 12dd	.	.	.	.	.	.	.
4Cn^^\ 4F#X 4An	.	.	.	.	.	.	.	.
.	12dd#X\J)	.	.	.	.	.	.	.
!	!	!	!	!LO:HP:a	!	!	!	!
.	12gn^^\L 12ggn	.	.	<	.	.	.	.
.	(12a#X\ 12cc#X 12dd#	.	.	.	.	.	.	.
4GGn^^\ 4C#X 4En 4A#X	.	.	.	.	.	.	.	.
.	12een\J)	.	[	.	.	.	.	.
.	12an^^\L 12aan	.	.	.	.	.	.	.
.	(12ccn\ 12een 12ffn	.	.	.	.	.	.	.
8FF#X^^\ 8Cn 8En 8An	.	.	.	.	.	.	.	.
.	12ff#X\J))	.	.	.	.	.	.	.
*	*	*	*v	*v	*	*	*	*
=33	=33	=33	=33	=33	=33	=33	=33
*^	*	*	*	*	*	*	*
4r	4ryy	4r	.	.	1r	.	.	.
4r	2FFF#X^^\ 2FF#X	4r	.	fff	.	.	.	.
4..F#X/ 4..cn 4..en	.	4..an\ 4..ccn 4..een 4..aan	.	.	.	.	.	.
.	[4BBBB^^\ [4BBB	.	.	.	.	.	.	.
!	!	!LO:TX:b:i:t=rall.:rj	!	!	!	!	!	!
16B/	.	16b\ 16bb	.	.	.	.	.	.
=34	=34	=34	=34	=34	=34	=34	=34	=34
!LO:TX:a:i:t=ten.	!	!LO:TX:a:i:t=ten.	!	!LO:DY:rj	!	!	!	!
1F#X; 1B 1d#X 1f#X	1BBBB;] 1BBB]	1b; 1dd#X 1ff#X 1bb	.	sfff	1r;	.	.	.
*v	*v	*	*	*	*	*	*	*
==	==	==	==	==	==	==	==
*-	*-	*-	*-	*-	*-	*-	*-
!!!system-decoration: s1{(s2,s3)}
!!!RDF**kern: < = below
!!!RDF**kern: > = above
!!!RDF**kern: Z = editorial accidental, paren
!!!RDF**kern: N = linked
!!!RDF**kern: NN = linked
!!!ENC: Anastazja Marusiak
!!!END: 2023-09-26
!!!EED: Marta Chmielewska
!!!EEV: 2023-10-21
